X: 12417
T: Far From Home
R: reel
M: 4/4
K: Amajor
|:AFEF A3B|c2cB cde2|AFEF A3c|B3c BAFB|
AFEF A3B|c2cB cde2|fefg afed|1 cABG A4:|2 cABG A2fg||
|:a3f g3e|f3g fece|afec A3c|B3c BAFB|
AFEF A3B|c2cB cde2|fefg afed|cABG A4:|

